X: 1
T: Le 24 Juin
M: 4/4
L: 1/8
R: reel
K: Gmin
G3A BABc | d2de dcBA | G^FGA BABc |
d^cde d3d |dccB c3c | cBBA B3B |
[1 A2^GA BAGA | dDcD BDAD :|2 A2^GA dcBA | G=BA^F G2A2 ||
K:G
~B3B ABcA | GABG DEDC | B,DGA BAGB |
ABcA ~E3B |cdec BcdB | A2AB AGFE |
[1 DEFG ABcd | efge dcBA :|2 fedB cAFD | GBAF G2F2 ||
